!! 00000] TT[00
!! NN
!!!OTL: Kan xin niang
!!!ARE: Taiwan
!! Ethnic Group: Gaoshan
!! IV, 580
!!!SCT: C0440
!!!YEM: Copyright 1995, estate of Helmut Schaffrath.
**kern
*ICvox
*Ivox
*M2/4
*k[b-]
*F:
{8d
8d
8d
8f
=1
8g
8a
8a
8cc
=2
4.dd
8a
=3
2cc}
=4
{8cc
8dd
8dd
8dd
=5
8cc
8dd
4cc}
=6
{8cc
8dd
8dd
8dd
=7
8cc
8dd
4dd
=8
8g
8f
4d}
=9
{4g
4g
=10
8g
8cc
4a
=11
8g
8a
4a}
=12
{8g
8a
8a
8a
=13
8g
8f
4d
=14
[2g
=15
8g]
8a}
{8a
8cc
=16
4dd
4dd
=17
8dd
8dd
4dd
=18
8cc
8dd
4dd
=19
8cc
8dd
4dd}
=20
{8cc
8a
4g
=21
8f
8g
4d
=22
8d
8f
8g
8a
=23
4a}
{8r
8cc
=24
4.dd
8cc
=25
4.a
8g
=26
8f
8cc
4a
=27
8g
8f
4d}
=28
{8g
8f
4d
=29
8f
8d
[4d
=30
2d_
=31
4d]
4r}
==
!!!AGN: Fengsu ge. Kan xinniang
!! 
!!!ONB: ESAC (Essen Associative Code) Database: CHINA
!!!AMT: simple duple
!!!AIN: vox
!!!EED: Helmut Schaffrath
!!!EEV: 1.0
*-
!!!ONB: Tied note syntax fixed by Craig Sapp, 2004/05/03/
